img/advantages/21.svg

<svg width="42" height="42" viewBox="0 0 42 42" fill="none" xmlns="http://www.w3.org/2000/svg">
<path d="M14.5994 11.9037C14.7308 11.7737 14.8338 11.6179 14.902 11.4461C14.9702 11.2742 15.002 11.0902 14.9955 10.9054C14.9889 10.7207 14.9442 10.5393 14.8641 10.3727C14.784 10.2061 14.6703 10.0579 14.53 9.9375C13.8243 9.33523 12.9278 9.00301 12 9L11.7957 9.00562H11.7657C9.65003 9.13437 8.00003 10.9719 8.0044 13.1875C8.0044 14.375 8.5044 15.0037 8.8994 15.5069C9.01024 15.6475 9.1492 15.7635 9.30739 15.8475C9.46558 15.9314 9.63954 15.9814 9.81815 15.9944C9.8344 15.9944 9.8619 15.9975 9.94315 15.9975C10.1038 15.9973 10.2628 15.9645 10.4105 15.9013C10.5581 15.838 10.6915 15.7455 10.8025 15.6294L14.5994 11.9037Z" fill="#88889F"/>
<path d="M30.2369 9.00688L30.0325 9.00063H30C29.0714 9.00304 28.1739 9.3353 27.4675 9.93813C27.3275 10.0586 27.2139 10.2067 27.1339 10.3732C27.054 10.5396 27.0093 10.7209 27.0028 10.9054C26.9963 11.09 27.028 11.274 27.0961 11.4457C27.1641 11.6174 27.267 11.7731 27.3982 11.9031L31.1963 15.6313C31.3076 15.7478 31.4413 15.8406 31.5894 15.904C31.7376 15.9674 31.897 16 32.0582 16C32.1382 16 32.1657 16 32.1832 15.9969C32.3617 15.9839 32.5355 15.9338 32.6936 15.8499C32.8517 15.7659 32.9905 15.65 33.1013 15.5094C33.4988 15.0062 33.9938 14.3794 33.9963 13.19C34 10.9719 32.35 9.13438 30.2369 9.00688Z" fill="#88889F"/>
<path d="M21.0044 11C14.9419 11 10.0044 15.9344 10.0044 22C10.0023 24.5717 10.9052 27.0622 12.555 29.035L10.2975 31.2931C10.2025 31.3855 10.1267 31.4958 10.0747 31.6178C10.0226 31.7397 9.99535 31.8707 9.99441 32.0032C9.99347 32.1358 10.0189 32.2672 10.0692 32.3898C10.1195 32.5125 10.1937 32.6239 10.2874 32.7176C10.3812 32.8113 10.4926 32.8854 10.6153 32.9357C10.7379 32.9859 10.8694 33.0113 11.0019 33.0103C11.1345 33.0093 11.2655 32.982 11.3874 32.9299C11.5093 32.8778 11.6196 32.802 11.7119 32.7069L13.9694 30.4494C15.9433 32.0973 18.433 33.0001 21.0044 33.0001C23.5758 33.0001 26.0655 32.0973 28.0394 30.4494L30.2975 32.7069C30.3899 32.802 30.5002 32.8778 30.6221 32.9299C30.7439 32.982 30.875 33.0093 31.0075 33.0103C31.1401 33.0113 31.2715 32.9859 31.3941 32.9357C31.5168 32.8854 31.6283 32.8113 31.722 32.7176C31.8157 32.6239 31.8899 32.5125 31.9402 32.3898C31.9905 32.2672 32.016 32.1358 32.015 32.0032C32.0141 31.8707 31.9868 31.7397 31.9348 31.6178C31.8827 31.4958 31.807 31.3855 31.7119 31.2931L29.4538 29.035C31.1039 27.0624 32.0069 24.5718 32.0044 22C32.0044 15.9375 27.07 11 21.0044 11ZM22.0044 22C22.0044 22.2652 21.899 22.5196 21.7115 22.7071C21.524 22.8946 21.2696 23 21.0044 23H16.0044C15.7392 23 15.4848 22.8946 15.2973 22.7071C15.1098 22.5196 15.0044 22.2652 15.0044 22C15.0044 21.7348 15.1098 21.4804 15.2973 21.2929C15.4848 21.1054 15.7392 21 16.0044 21H20.0044V15C20.0044 14.7348 20.1098 14.4804 20.2973 14.2929C20.4848 14.1054 20.7392 14 21.0044 14C21.2696 14 21.524 14.1054 21.7115 14.2929C21.899 14.4804 22.0044 14.7348 22.0044 15V22Z" fill="#88889F"/>
</svg>

<svg width="42" height="42" fill="none" xmlns="http://www.w3.org/2000/svg"><path d="M14.6 11.904a1.338 1.338 0 0 0-.07-1.966A3.917 3.917 0 0 0 12 9l-.204.006h-.03C9.65 9.134 8 10.972 8.004 13.187c0 1.188.5 1.817.895 2.32a1.29 1.29 0 0 0 .92.487c.015 0 .043.004.124.004a1.192 1.192 0 0 0 .86-.369l3.796-3.725Zm15.637-2.897L30.033 9H30a3.917 3.917 0 0 0-2.532.937 1.34 1.34 0 0 0-.07 1.965l3.798 3.728a1.193 1.193 0 0 0 .862.369c.08 0 .108 0 .125-.003a1.288 1.288 0 0 0 .918-.488c.398-.503.893-1.13.895-2.319.004-2.218-1.646-4.056-3.76-4.183Z" fill="#88889F"/><path d="M21.004 11c-6.062 0-11 4.934-11 11a10.952 10.952 0 0 0 2.551 7.035l-2.258 2.258a1 1 0 1 0 1.415 1.414l2.257-2.258a10.977 10.977 0 0 0 14.07 0l2.258 2.258a1.001 1.001 0 1 0 1.415-1.414l-2.258-2.258A10.948 10.948 0 0 0 32.004 22c0-6.063-4.934-11-11-11Zm1 11a1 1 0 0 1-1 1h-5a1 1 0 0 1 0-2h4v-6a1 1 0 0 1 2 0v7Z" fill="#88889F"/></svg>
